assets/icons/GitHub.svg

<svg width="32" height="32" viewBox="0 0 32 32" fill="none" xmlns="http://www.w3.org/2000/svg">
<path fill-rule="evenodd" clip-rule="evenodd" d="M15.9999 3.32104C8.82119 3.32104 3 9.14094 3 16.3209C3 22.0648 6.72487 26.9375 11.8901 28.6567C12.5396 28.7773 12.7781 28.3747 12.7781 28.0313C12.7781 27.7214 12.7661 26.6973 12.7605 25.611C9.14389 26.3974 8.38074 24.0772 8.38074 24.0772C7.78939 22.5746 6.93734 22.1751 6.93734 22.1751C5.75764 21.3682 7.02625 21.385 7.02625 21.385C8.33145 21.4765 9.01903 22.7247 9.01903 22.7247C10.1785 24.7116 12.0602 24.1373 12.802 23.8053C12.9187 22.9651 13.2556 22.3914 13.6274 22.0668C10.7399 21.7385 7.70436 20.6236 7.70436 15.6424C7.70436 14.2231 8.2124 13.0634 9.044 12.1528C8.90881 11.8256 8.46384 10.5034 9.16972 8.71277C9.16972 8.71277 10.2612 8.36338 12.7454 10.0453C13.7826 9.75706 14.8949 9.61218 15.9999 9.60722C17.1042 9.61218 18.2172 9.75662 19.2563 10.0449C21.7376 8.36295 22.8277 8.71234 22.8277 8.71234C23.5353 10.5028 23.0903 11.8252 22.9554 12.1524C23.7889 13.063 24.2933 14.2227 24.2933 15.642C24.2933 20.635 21.2521 21.7342 18.3573 22.0562C18.8238 22.4597 19.2393 23.251 19.2393 24.4636C19.2393 26.203 19.2242 27.603 19.2242 28.0311C19.2242 28.3771 19.4585 28.7824 20.1172 28.6548C25.2794 26.9339 29 22.0627 29 16.3209C28.9998 9.14137 23.1792 3.32104 15.9999 3.32104Z" fill="#E2E4E9"/>
<path d="M7.92372 21.9858C7.89509 22.0504 7.79348 22.0698 7.70091 22.0257C7.60619 21.9835 7.55345 21.8954 7.58402 21.8306C7.612 21.7639 7.71383 21.7456 7.8079 21.7902C7.90262 21.8326 7.95666 21.9213 7.92372 21.9858ZM8.45028 22.5733C8.38849 22.6308 8.26729 22.6041 8.18506 22.513C8.09981 22.4226 8.08388 22.3014 8.14696 22.2431C8.21111 22.1858 8.32865 22.213 8.4139 22.3034C8.49871 22.3951 8.51529 22.515 8.45028 22.5733ZM8.96306 23.3218C8.8834 23.3774 8.75295 23.3255 8.67244 23.2099C8.59279 23.0941 8.59279 22.9552 8.67459 22.8999C8.75489 22.8443 8.88341 22.8945 8.96521 23.009C9.04443 23.1264 9.04443 23.2654 8.96306 23.3218ZM9.66506 24.0454C9.59402 24.1239 9.44204 24.1028 9.33096 23.9958C9.21751 23.891 9.18586 23.7418 9.25712 23.6635C9.32945 23.5847 9.48208 23.6066 9.59381 23.713C9.70725 23.8176 9.74105 23.9672 9.66506 24.0454ZM10.6338 24.4654C10.6021 24.5672 10.4562 24.6135 10.3087 24.57C10.1617 24.5254 10.0655 24.4064 10.0956 24.3035C10.1257 24.2008 10.2728 24.1528 10.4211 24.1991C10.5681 24.2434 10.6644 24.3618 10.6338 24.4654ZM11.6979 24.5431C11.7015 24.6503 11.5767 24.739 11.4223 24.7411C11.2667 24.7448 11.1408 24.6578 11.1392 24.5523C11.1392 24.444 11.2615 24.3564 11.417 24.3534C11.5713 24.3506 11.6979 24.4369 11.6979 24.5431ZM12.6877 24.3747C12.7062 24.4791 12.5988 24.5866 12.4453 24.6152C12.2946 24.6432 12.1547 24.5782 12.1353 24.4746C12.1168 24.3674 12.2262 24.26 12.3769 24.2322C12.5306 24.2057 12.6683 24.2686 12.6877 24.3747Z" fill="#E2E4E9"/>
</svg>

<svg xmlns="http://www.w3.org/2000/svg" width="32" height="32" fill="none"><path fill="#E2E4E9" fill-rule="evenodd" d="M16 3.321c-7.179 0-13 5.82-13 13 0 5.744 3.725 10.616 8.89 12.336.65.12.888-.282.888-.626 0-.31-.012-1.334-.018-2.42-3.616.786-4.38-1.534-4.38-1.534-.59-1.502-1.443-1.902-1.443-1.902-1.18-.807.09-.79.09-.79 1.304.091 1.992 1.34 1.992 1.34 1.16 1.987 3.041 1.412 3.783 1.08.117-.84.454-1.414.825-1.738-2.887-.329-5.923-1.443-5.923-6.425 0-1.419.508-2.579 1.34-3.49-.135-.326-.58-1.649.126-3.44 0 0 1.091-.349 3.575 1.333A12.5 12.5 0 0 1 16 9.607c1.104.005 2.217.15 3.256.438 2.482-1.682 3.572-1.333 3.572-1.333.707 1.79.262 3.113.127 3.44.834.911 1.338 2.07 1.338 3.49 0 4.993-3.04 6.092-5.936 6.414.467.404.882 1.195.882 2.408 0 1.739-.015 3.139-.015 3.567 0 .346.235.751.893.624C25.28 26.934 29 22.063 29 16.32c0-7.18-5.82-13-13-13" clip-rule="evenodd"/><path fill="#E2E4E9" d="M7.924 21.986c-.029.064-.13.084-.223.04-.095-.043-.148-.13-.117-.195.028-.067.13-.085.224-.04.095.042.149.13.116.195m.526.587c-.062.058-.183.031-.265-.06-.085-.09-.101-.212-.038-.27.064-.057.182-.03.267.06.085.092.101.212.036.27m.513.749c-.08.055-.21.004-.29-.112s-.08-.255.002-.31c.08-.056.208-.005.29.109.08.117.08.256-.002.313m.702.723c-.071.079-.223.058-.334-.05-.113-.104-.145-.253-.074-.332.072-.078.225-.056.337.05.113.105.147.254.071.332m.969.42c-.032.102-.178.148-.325.105-.147-.045-.243-.164-.213-.267.03-.102.177-.15.325-.104.147.044.243.163.213.266m1.064.078c.003.107-.121.196-.276.198-.155.004-.281-.083-.283-.189 0-.108.123-.196.278-.199.154-.002.28.084.28.19m.99-.168c.018.104-.09.212-.243.24-.15.028-.29-.037-.31-.14-.018-.108.091-.215.242-.243.154-.026.291.037.31.143"/></svg>
